;FLAVOR:Marlin
;TIME:3275
;Filament used: 5.64169m
;Layer height: 0.4
;MINX:68.382
;MINY:23.532
;MINZ:0.2
;MAXX:185.724
;MAXY:159.867
;MAXZ:5
;Generated with Cura_SteamEngine 5.4.0
M82 ;absolute extrusion mode
G21 ; set units to millimeters
G90 ; use absolute positioning
M82 ; absolute extrusion mode
M104 S200 ; set extruder temp
M140 S60 ; set bed temp
M190 S60 ; wait for bed temp
M109 S200 ; wait for extruder temp
G28 W ; home all without mesh bed level
G80 ; mesh bed leveling
G92 E0.0 ; reset extruder distance position
G1 Y-3.0 F1000.0 ; go outside print area
G1 X60.0 E9.0 F1000.0 ; intro line
G1 X100.0 E21.5 F1000.0 ; intro line
G92 E0.0 ; reset extruder distance position
G92 E0
G92 E0
G1 F2100 E-0.8
;LAYER_COUNT:13
;LAYER:0
M107
G0 F3600 X98.95 Y36.701 Z0.2
;TYPE:SKIRT
G1 F2100 E0
G1 F1800 X99.259 Y35.916 E0.02806
G1 X99.798 Y34.813 E0.06889
G1 X100.207 Y34.02 E0.09857
G1 X100.884 Y32.937 E0.14105
G1 X101.349 Y32.227 E0.16928
G1 X102.094 Y31.266 E0.20972
G1 X102.673 Y30.554 E0.24024
G1 X103.539 Y29.65 E0.28188
G1 X104.165 Y29.025 E0.3113
G1 X105.134 Y28.202 E0.35359
G1 X105.811 Y27.653 E0.38258
G1 X106.84 Y26.949 E0.42404
G1 X107.596 Y26.457 E0.45404
G1 X108.692 Y25.862 E0.49552
G1 X109.625 Y25.39 E0.5303
G1 X111.267 Y24.731 E0.58915
G1 X111.859 Y24.533 E0.60991
G1 X112.682 Y24.293 E0.63842
G1 X113.647 Y24.035 E0.67165
G1 X114.764 Y23.829 E0.70942
G1 X115.438 Y23.717 E0.73215
G1 X115.969 Y23.655 E0.74993
G1 X116.826 Y23.587 E0.77852
G1 X117.7 Y23.532 E0.80765
G1 X118.85 Y23.55 E0.8459
G1 X119.824 Y23.589 E0.87833
G1 X121.129 Y23.746 E0.92204
G1 X121.788 Y23.841 E0.94419
G1 X122.346 Y23.95 E0.9631
G1 X123.233 Y24.158 E0.9934
G1 X124.157 Y24.396 E1.02513
G1 X125.274 Y24.782 E1.06444
G1 X126.191 Y25.122 E1.09697
G1 X127.834 Y25.903 E1.15748
G1 X128.458 Y26.252 E1.18126
G1 X129.751 Y27.041 E1.23164
G1 X130.752 Y27.776 E1.27294
G1 X131.596 Y28.433 E1.30852
G1 X132.439 Y29.21 E1.34665
G1 X133.053 Y29.798 E1.37492
G1 X133.813 Y30.646 E1.4128
G1 X134.461 Y31.404 E1.44596
G1 X135.207 Y32.439 E1.4884
G1 X135.719 Y33.191 E1.51866
G1 X137.212 Y35.683 E1.61528
G1 X138.701 Y38.024 E1.70756
G1 X140.229 Y40.279 E1.79815
G1 X141.813 Y42.483 E1.88843
G1 X143.503 Y44.696 E1.98104
G1 X145.207 Y46.804 E2.0712
G1 X146.985 Y48.882 E2.16216
G1 X148.836 Y50.922 E2.25377
G1 X150.705 Y52.868 E2.34352
G1 X152.685 Y54.818 E2.43595
G1 X154.532 Y56.54 E2.51994
G1 X155.492 Y57.422 E2.5633
G1 X156.104 Y58.006 E2.59143
G1 X156.92 Y58.919 E2.63216
G1 X157.518 Y59.619 E2.66278
G1 X158.267 Y60.657 E2.70535
G1 X158.657 Y61.222 E2.72819
G1 X159.009 Y61.763 E2.74965
G1 X159.93 Y63.228 E2.80721
G1 X161.461 Y65.518 E2.89883
G1 X163.047 Y67.749 E2.98987
G1 X164.676 Y69.91 E3.07988
G1 X166.406 Y72.076 E3.17208
G1 X168.167 Y74.154 E3.26268
G1 X170.015 Y76.215 E3.35475
G1 X171.849 Y78.15 E3.44342
G1 X173.821 Y80.113 E3.53596
G1 X175.825 Y82 E3.62752
G1 X177.772 Y83.734 E3.71423
G1 X178.588 Y84.443 E3.75019
G1 X179.269 Y85.072 E3.78102
G1 X180.017 Y85.793 E3.81557
G1 X181.374 Y87.37 E3.88477
G1 X182.496 Y88.965 E3.94963
G1 X183.161 Y90.122 E3.99402
G1 X183.552 Y90.836 E4.02109
G1 X184.05 Y91.951 E4.06171
G1 X184.396 Y92.772 E4.09134
G1 X184.794 Y93.982 E4.13371
G1 X185.045 Y94.808 E4.16242
G1 X185.314 Y96.041 E4.20439
G1 X185.51 Y97.075 E4.2394
G1 X185.684 Y98.853 E4.29882
G1 X185.716 Y99.488 E4.31996
G1 X185.724 Y100.177 E4.34288
G1 X185.68 Y101.442 E4.38498
G1 X185.479 Y103.25 E4.44549
G1 X185.233 Y104.484 E4.48734
G1 X185.038 Y105.356 E4.51706
G1 X184.691 Y106.477 E4.55609
G1 X184.322 Y107.561 E4.59417
G1 X183.601 Y109.187 E4.65333
G1 X183.354 Y109.671 E4.6714
G1 X182.903 Y110.469 E4.70189
G1 X182.373 Y111.361 E4.7364
G1 X181.727 Y112.271 E4.77352
G1 X180.178 Y114.515 E4.86421
G1 X178.685 Y116.817 E4.95547
G1 X177.258 Y119.159 E5.04668
G1 X175.885 Y121.559 E5.13865
G1 X174.617 Y123.933 E5.22816
G1 X173.379 Y126.415 E5.32041
G1 X172.238 Y128.876 E5.41064
G1 X171.151 Y131.404 E5.50216
G1 X170.133 Y133.97 E5.59398
G1 X169.19 Y136.561 E5.68569
G1 X168.138 Y139.66 E5.79454
G1 X167.869 Y140.402 E5.82079
G1 X167.368 Y141.498 E5.86087
G1 X166.875 Y142.503 E5.8981
G1 X165.871 Y144.155 E5.9624
G1 X165.102 Y145.199 E6.00552
G1 X164.593 Y145.858 E6.03322
G1 X163.709 Y146.829 E6.07689
G1 X163.124 Y147.441 E6.10505
G1 X162.272 Y148.205 E6.14311
G1 X161.392 Y148.951 E6.18148
G1 X159.805 Y150.066 E6.24599
G1 X158.709 Y150.699 E6.28809
G1 X157.933 Y151.124 E6.31752
G1 X156.817 Y151.623 E6.35818
G1 X155.996 Y151.969 E6.38781
G1 X154.793 Y152.365 E6.42993
G1 X153.963 Y152.617 E6.45878
G1 X152.725 Y152.887 E6.50093
G1 X152.006 Y153.027 E6.52529
G1 X151.469 Y153.105 E6.54334
G1 X150.564 Y153.199 E6.5736
G1 X149.541 Y153.281 E6.60774
G1 X146.939 Y153.359 E6.69432
G1 X144.228 Y153.51 E6.78462
G1 X141.489 Y153.739 E6.87604
G1 X138.781 Y154.044 E6.96668
G1 X136.054 Y154.428 E7.05828
G1 X133.341 Y154.89 E7.14981
G1 X130.668 Y155.422 E7.24046
G1 X128.061 Y156.019 E7.32941
G1 X125.352 Y156.721 E7.42249
G1 X122.723 Y157.482 E7.51352
G1 X120.086 Y158.325 E7.6056
G1 X119.193 Y158.635 E7.63704
G1 X118.557 Y158.841 E7.65927
G1 X117.703 Y159.092 E7.68888
G1 X116.861 Y159.324 E7.71793
G1 X115.673 Y159.552 E7.75816
G1 X114.604 Y159.726 E7.79419
G1 X113.5 Y159.813 E7.83102
G1 X112.64 Y159.867 E7.85968
G1 X111.49 Y159.849 E7.89793
G1 X110.496 Y159.81 E7.93102
G1 X109.271 Y159.661 E7.97206
G1 X108.541 Y159.556 E7.99659
G1 X107.985 Y159.447 E8.01544
G1 X107.157 Y159.253 E8.04372
G1 X106.166 Y158.999 E8.07775
G1 X105.064 Y158.617 E8.11654
G1 X104.146 Y158.276 E8.14911
G1 X102.394 Y157.443 E8.21363
G1 X101.261 Y156.776 E8.25736
G1 X100.583 Y156.355 E8.28391
G1 X99.56 Y155.603 E8.32614
G1 X98.954 Y155.135 E8.3516
G1 X98.436 Y154.685 E8.37443
G1 X97.422 Y153.733 E8.42069
G1 X97.027 Y153.32 E8.43969
G1 X96.473 Y152.693 E8.46752
G1 X95.769 Y151.859 E8.50382
G1 X94.682 Y150.313 E8.56668
G1 X93.125 Y147.717 E8.66736
G1 X91.662 Y145.419 E8.75797
G1 X90.128 Y143.153 E8.84898
G1 X88.51 Y140.904 E8.94113
G1 X86.864 Y138.749 E9.03132
G1 X85.148 Y136.627 E9.12209
G1 X83.366 Y134.544 E9.21326
G1 X81.515 Y132.504 E9.30488
G1 X79.628 Y130.539 E9.39549
G1 X77.672 Y128.613 E9.4868
G1 X75.658 Y126.741 E9.57825
G1 X74.566 Y125.754 E9.62721
G1 X73.721 Y124.846 E9.66846
G1 X73.129 Y124.178 E9.69815
G1 X72.783 Y123.736 E9.71682
G1 X71.903 Y122.544 E9.7661
G1 X71.215 Y121.422 E9.80987
G1 X70.796 Y120.701 E9.83761
G1 X70.232 Y119.52 E9.88114
G1 X69.942 Y118.875 E9.90466
G1 X69.694 Y118.226 E9.92777
G1 X69.248 Y116.914 E9.97386
G1 X69.083 Y116.321 E9.99433
G1 X68.743 Y114.842 E10.0448
G1 X68.643 Y114.257 E10.06454
G1 X68.438 Y112.607 E10.11985
G1 X68.406 Y111.859 E10.14475
G1 X68.382 Y110.461 E10.19125
G1 X68.465 Y109.231 E10.23225
G1 X68.551 Y108.301 E10.26332
G1 X68.756 Y107.119 E10.30322
G1 X68.932 Y106.219 E10.33372
G1 X69.272 Y105.015 E10.37533
G1 X69.535 Y104.159 E10.40511
G1 X69.991 Y103.013 E10.44614
G1 X70.28 Y102.33 E10.4708
G1 X70.528 Y101.816 E10.48979
G1 X70.945 Y101.031 E10.51935
G1 X71.47 Y100.078 E10.55554
G1 X72.783 Y97.616 E10.64834
G1 X73.996 Y95.176 E10.73897
G1 X75.166 Y92.645 E10.83171
G1 X76.221 Y90.182 E10.92083
G1 X77.24 Y87.602 E11.01309
G1 X78.171 Y85.037 E11.10385
G1 X79.022 Y82.467 E11.19389
G1 X79.818 Y79.818 E11.28589
G1 X80.526 Y77.189 E11.37645
G1 X81.165 Y74.524 E11.4676
G1 X81.775 Y71.704 E11.56356
G1 X81.924 Y71.159 E11.58235
G1 X82.201 Y70.283 E11.61291
G1 X82.463 Y69.503 E11.64028
G1 X82.992 Y68.267 E11.685
G1 X83.436 Y67.312 E11.72002
G1 X84.47 Y65.538 E11.78832
G1 X85.147 Y64.582 E11.82728
G1 X86.744 Y62.269 E11.92077
G1 X88.213 Y60.009 E12.01042
G1 X89.638 Y57.674 E12.1014
G1 X91.016 Y55.263 E12.19376
G1 X92.303 Y52.858 E12.28449
G1 X93.52 Y50.419 E12.37515
G1 X94.672 Y47.938 E12.46613
G1 X95.754 Y45.42 E12.55728
G1 X96.768 Y42.872 E12.64849
G1 X97.7 Y40.315 E12.73901
G1 X98.067 Y39.206 E12.77786
G1 X98.642 Y37.524 E12.83699
G1 X98.95 Y36.701 E12.86621
G1 F2100 E12.06621
;MESH:125.STL
G0 F3600 X100.929 Y38.637
G0 X101.944 Y39.019
G0 X108.252 Y49.968
G0 X109.088 Y51.22
G0 X110.08 Y52.351
G0 X111.211 Y53.343
G0 X112.463 Y54.179
G0 X113.812 Y54.844
G0 X114.618 Y55.117
G0 X118.248 Y56.18
G0 X118.229 Y55.88
;TYPE:WALL-INNER
G1 F2100 E12.86621
G1 F1800 X116.719 Y55.785 E12.91654
G1 X115.18 Y55.481 E12.96871
G1 X113.758 Y54.997 E13.01867
G1 X112.397 Y54.327 E13.06913
G1 X111.094 Y53.456 E13.12126
G1 X109.961 Y52.46 E13.17143
G1 X108.966 Y51.325 E13.22163
G1 X108.102 Y50.031 E13.27338
G1 X107.421 Y48.639 E13.32493
G1 X106.958 Y47.276 E13.3728
G1 X106.652 Y45.758 E13.42431
G1 X106.551 Y44.249 E13.47461
G1 X106.652 Y42.673 E13.52714
G1 X106.946 Y41.201 E13.57706
G1 X107.428 Y39.778 E13.62703
G1 X108.102 Y38.405 E13.6779
G1 X108.966 Y37.11 E13.72968
G1 X109.961 Y35.976 E13.77986
G1 X111.094 Y34.98 E13.83003
G1 X112.414 Y34.099 E13.88282
G1 X113.79 Y33.426 E13.93376
G1 X115.181 Y32.954 E13.98262
G1 X116.658 Y32.659 E14.03272
G1 X118.229 Y32.555 E14.08508
G1 X119.737 Y32.654 E14.13535
G1 X121.216 Y32.946 E14.18549
G1 X122.641 Y33.427 E14.23551
G1 X124.056 Y34.123 E14.28796
G1 X125.309 Y34.96 E14.33808
G1 X126.444 Y35.955 E14.38828
G1 X127.49 Y37.149 E14.44107
G1 X128.316 Y38.388 E14.4906
G1 X128.988 Y39.749 E14.54109
G1 X129.473 Y41.171 E14.59106
G1 X129.779 Y42.705 E14.64308
G1 X129.877 Y44.216 E14.69345
G1 X129.779 Y45.727 E14.74381
G1 X129.473 Y47.265 E14.79596
G1 X128.988 Y48.686 E14.8459
G1 X128.316 Y50.048 E14.89642
G1 X127.48 Y51.3 E14.94649
G1 X126.485 Y52.44 E14.99682
G1 X125.309 Y53.475 E15.04892
G1 X124.056 Y54.312 E15.09904
G1 X122.698 Y54.984 E15.14943
G1 X121.215 Y55.489 E15.20154
G1 X119.738 Y55.782 E15.25162
G1 X118.229 Y55.88 E15.30192
G0 F3600 X118.248 Y56.18
G0 X117.787 Y60.812
G0 X117.781 Y61.111
G1 F1800 X119.512 Y61.066 E15.35951
G1 X121.247 Y60.841 E15.4177
G1 X122.936 Y60.444 E15.47541
G1 X124.579 Y59.871 E15.53328
G1 X126.153 Y59.134 E15.59109
G1 X127.65 Y58.235 E15.64917
G1 X129.035 Y57.197 E15.70673
G1 X130.316 Y56.011 E15.7648
G1 X131.466 Y54.702 E15.82275
G1 X132.474 Y53.283 E15.88064
G1 X133.324 Y51.785 E15.93793
G1 X134.023 Y50.183 E15.99606
G1 X134.555 Y48.516 E16.05426
G1 X134.91 Y46.822 E16.11183
G1 X135.09 Y45.076 E16.17021
G1 X135.112 Y44.216 E16.19882
G1 X135.09 Y43.352 E16.22757
G1 X134.91 Y41.614 E16.28568
G1 X134.556 Y39.92 E16.34324
G1 X134.023 Y38.253 E16.40145
G1 X133.328 Y36.659 E16.45929
G1 X132.474 Y35.153 E16.51687
G1 X131.466 Y33.734 E16.57476
G1 X130.312 Y32.421 E16.6329
G1 X129.035 Y31.239 E16.69078
G1 X127.65 Y30.201 E16.74835
G1 X126.151 Y29.3 E16.80652
G1 X124.579 Y28.565 E16.86423
G1 X122.935 Y27.992 E16.92214
G1 X121.247 Y27.594 E16.97982
G1 X119.512 Y27.37 E17.03801
G1 X117.781 Y27.325 E17.0956
G1 X116.038 Y27.46 E17.15375
G1 X114.336 Y27.769 E17.21128
G1 X112.666 Y28.256 E17.26914
G1 X111.046 Y28.915 E17.32731
G1 X109.51 Y29.734 E17.3852
G1 X108.074 Y30.7 E17.44277
G1 X106.731 Y31.821 E17.50095
G1 X105.522 Y33.058 E17.55848
G1 X104.438 Y34.43 E17.61664
G1 X103.504 Y35.898 E17.67451
G1 X102.726 Y37.455 E17.7324
G1 X102.117 Y39.074 E17.78993
G1 X101.681 Y40.728 E17.84682
G1 X101.404 Y42.477 E17.90572
G1 X101.314 Y44.222 E17.96383
G1 X101.404 Y45.96 E18.02172
G1 X101.675 Y47.708 E18.08055
G1 X102.117 Y49.361 E18.13746
G1 X102.726 Y50.981 E18.19503
G1 X103.504 Y52.537 E18.25289
G1 X104.437 Y54.006 E18.31077
G1 X105.522 Y55.378 E18.36894
G1 X106.731 Y56.616 E18.4265
G1 X108.074 Y57.736 E18.48466
G1 X109.51 Y58.702 E18.54222
G1 X111.046 Y59.521 E18.60012
G1 X112.666 Y60.179 E18.65828
G1 X114.336 Y60.667 E18.71614
G1 X116.038 Y60.976 E18.77368
G1 X117.781 Y61.111 E18.83182
G0 F3600 X117.771 Y61.511
;TYPE:WALL-OUTER
G1 F1800 X119.543 Y61.466 E18.89078
G1 X121.319 Y61.235 E18.95035
G1 X123.048 Y60.828 E19.00943
G1 X124.73 Y60.242 E19.06867
G1 X126.341 Y59.488 E19.12783
G1 X127.874 Y58.567 E19.18731
G1 X129.291 Y57.505 E19.24621
G1 X130.603 Y56.291 E19.30566
G1 X131.78 Y54.95 E19.365
G1 X132.812 Y53.498 E19.42425
G1 X133.682 Y51.964 E19.48291
G1 X134.398 Y50.324 E19.54243
G1 X134.943 Y48.618 E19.60199
G1 X135.306 Y46.884 E19.66092
G1 X135.49 Y45.102 E19.7205
G1 X135.512 Y44.216 E19.74998
G1 X135.49 Y43.326 E19.77959
G1 X135.306 Y41.552 E19.83891
G1 X134.943 Y39.818 E19.89783
G1 X134.398 Y38.112 E19.9574
G1 X133.686 Y36.48 E20.01662
G1 X132.812 Y34.938 E20.07557
G1 X131.78 Y33.486 E20.13482
G1 X130.599 Y32.141 E20.19436
G1 X129.291 Y30.931 E20.25362
G1 X127.874 Y29.869 E20.31252
G1 X126.339 Y28.946 E20.37209
G1 X124.73 Y28.194 E20.43116
G1 X123.047 Y27.608 E20.49044
G1 X121.319 Y27.2 E20.54949
G1 X119.543 Y26.97 E20.60905
G1 X117.771 Y26.925 E20.66801
G1 X115.986 Y27.063 E20.72756
G1 X114.244 Y27.379 E20.78644
G1 X112.534 Y27.878 E20.84569
G1 X110.876 Y28.552 E20.90521
G1 X109.304 Y29.39 E20.96446
G1 X107.834 Y30.38 E21.02341
G1 X106.459 Y31.527 E21.08297
G1 X105.221 Y32.794 E21.14188
G1 X104.111 Y34.198 E21.20141
G1 X103.156 Y35.701 E21.26064
G1 X102.359 Y37.295 E21.31991
G1 X101.735 Y38.952 E21.37881
G1 X101.289 Y40.646 E21.43707
G1 X101.006 Y42.435 E21.49731
G1 X100.914 Y44.222 E21.55682
G1 X101.006 Y46.001 E21.61607
G1 X101.283 Y47.79 E21.67629
G1 X101.735 Y49.483 E21.73457
G1 X102.359 Y51.141 E21.79349
G1 X103.156 Y52.734 E21.85273
G1 X104.111 Y54.238 E21.91199
G1 X105.221 Y55.642 E21.97152
G1 X106.459 Y56.91 E22.03046
G1 X107.834 Y58.056 E22.08999
G1 X109.304 Y59.046 E22.14894
G1 X110.876 Y59.884 E22.20819
G1 X112.534 Y60.557 E22.2677
G1 X114.244 Y61.057 E22.32696
G1 X115.986 Y61.373 E22.38585
G1 X117.771 Y61.511 E22.44539
G0 F3600 X117.971 Y61.506
G0 X117.954 Y60.806
G0 X118.154 Y56.177
G0 X118.2 Y55.48
G1 F1800 X116.741 Y55.385 E22.49402
G1 X115.292 Y55.097 E22.54316
G1 X113.908 Y54.626 E22.59178
G1 X112.585 Y53.974 E22.64084
G1 X111.347 Y53.145 E22.69039
G1 X110.247 Y52.18 E22.73906
G1 X109.27 Y51.064 E22.7884
G1 X108.456 Y49.845 E22.83715
G1 X107.8 Y48.51 E22.88662
G1 X107.333 Y47.134 E22.93495
G1 X107.047 Y45.696 E22.98372
G1 X106.951 Y44.204 E23.03344
G1 X107.048 Y42.728 E23.08264
G1 X107.333 Y41.303 E23.13098
G1 X107.802 Y39.919 E23.17958
G1 X108.456 Y38.591 E23.22881
G1 X109.27 Y37.371 E23.27759
G1 X110.247 Y36.256 E23.3269
G1 X111.367 Y35.274 E23.37644
G1 X112.591 Y34.458 E23.42537
G1 X113.908 Y33.809 E23.47421
G1 X115.293 Y33.338 E23.52286
G1 X116.752 Y33.05 E23.57232
G1 X118.227 Y32.955 E23.62148
G1 X119.686 Y33.051 E23.67012
G1 X121.124 Y33.336 E23.71887
G1 X122.532 Y33.815 E23.76834
G1 X123.858 Y34.471 E23.81755
G1 X125.069 Y35.28 E23.86598
G1 X126.187 Y36.264 E23.91552
G1 X127.157 Y37.371 E23.96447
G1 X127.968 Y38.586 E24.01306
G1 X128.621 Y39.909 E24.06213
G1 X129.097 Y41.315 E24.1115
G1 X129.381 Y42.747 E24.16006
G1 X129.477 Y44.223 E24.20926
G1 X129.381 Y45.686 E24.25802
G1 X129.095 Y47.13 E24.30698
G1 X128.621 Y48.526 E24.35601
G1 X127.968 Y49.85 E24.40512
G1 X127.154 Y51.068 E24.45384
G1 X126.186 Y52.174 E24.50273
G1 X125.069 Y53.155 E24.55217
G1 X123.85 Y53.969 E24.60092
G1 X122.508 Y54.63 E24.65068
G1 X121.117 Y55.101 E24.69952
G1 X119.686 Y55.385 E24.74805
G1 X118.2 Y55.48 E24.79757
G0 F3600 X118.001 Y55.468
G0 X117.956 Y56.164
G0 X117.793 Y60.73
;TYPE:SKIN
G1 F1800 X116.08 Y60.597 E24.85472
G1 X114.427 Y60.297 E24.9106
G1 X112.795 Y59.82 E24.96715
G1 X111.204 Y59.174 E25.02426
G1 X109.703 Y58.373 E25.08085
G1 X108.307 Y57.433 E25.13682
G1 X107.005 Y56.353 E25.19309
G1 X105.81 Y55.129 E25.24998
G1 X104.745 Y53.782 E25.3071
G1 X103.835 Y52.345 E25.36367
G1 X103.073 Y50.824 E25.42025
G1 X102.478 Y49.24 E25.47653
G1 X102.046 Y47.624 E25.53216
G1 X101.784 Y45.925 E25.58934
G1 X101.695 Y44.225 E25.64596
G1 X101.784 Y42.513 E25.70298
G1 X102.064 Y40.773 E25.7616
G1 X102.482 Y39.185 E25.81621
G1 X103.073 Y37.612 E25.8721
G1 X103.835 Y36.09 E25.92871
G1 X104.746 Y34.654 E25.98528
G1 X105.81 Y33.307 E26.04237
G1 X107.008 Y32.085 E26.09929
G1 X108.307 Y31.003 E26.15552
G1 X109.703 Y30.063 E26.21149
G1 X111.205 Y29.262 E26.26811
G1 X112.795 Y28.615 E26.3252
G1 X114.426 Y28.138 E26.38172
G1 X116.08 Y27.839 E26.43763
G1 X117.793 Y27.706 E26.49477
G1 X119.478 Y27.75 E26.55083
G1 X121.183 Y27.97 E26.60801
G1 X122.828 Y28.359 E26.66423
G1 X124.436 Y28.919 E26.72087
G1 X125.967 Y29.634 E26.77707
